packages/icons/src/components/Icon/assets/small/audio.svg

<svg width="17" height="16" viewBox="0 0 17 16" fill="none" xmlns="http://www.w3.org/2000/svg">
<path d="M8.7019 1.99756C9.11579 1.99776 9.45164 2.33271 9.4519 2.74658V13.2515C9.4519 13.6656 9.11595 14.0022 8.7019 14.0024C8.28785 14.0024 7.95217 13.6664 7.9519 13.2524V2.74756C7.9519 2.33335 8.28769 1.99756 8.7019 1.99756Z" fill="#727683"/>
<path d="M10.9587 3.87646C11.3729 3.87646 11.7096 4.21236 11.7097 4.62646V11.3931C11.7097 11.8071 11.3737 12.1428 10.9597 12.1431C10.5455 12.1431 10.2097 11.8073 10.2097 11.3931V4.62646C10.2098 4.21253 10.5448 3.87673 10.9587 3.87646Z" fill="#727683"/>
<path d="M4.18628 4.24854C4.60044 4.2486 4.93628 4.58436 4.93628 4.99854V10.9985C4.93628 11.4127 4.60044 11.7485 4.18628 11.7485C3.77207 11.7485 3.43628 11.4127 3.43628 10.9985V4.99854C3.43628 4.58432 3.77207 4.24854 4.18628 4.24854Z" fill="#727683"/>
<path d="M6.44409 5.74854C6.85819 5.74867 7.19409 6.0844 7.19409 6.49854V9.49854C7.19409 9.91267 6.85819 10.2484 6.44409 10.2485C6.02988 10.2485 5.69409 9.91275 5.69409 9.49854V6.49854C5.69409 6.08432 6.02988 5.74854 6.44409 5.74854Z" fill="#727683"/>
<path d="M13.2166 5.74854C13.6308 5.74854 13.9675 6.08432 13.9675 6.49854V9.49854C13.9675 9.91259 13.6315 10.2483 13.2175 10.2485C12.8033 10.2485 12.4675 9.91275 12.4675 9.49854V6.49854C12.4675 6.08448 12.8026 5.7488 13.2166 5.74854Z" fill="#727683"/>
</svg>

<svg xmlns="http://www.w3.org/2000/svg" width="17" height="16" fill="none" viewBox="0 0 17 16">
    <path fill="#727683" d="M8.702 1.998a.75.75 0 0 1 .75.749v10.505a.751.751 0 0 1-1.5 0V2.748a.75.75 0 0 1 .75-.75m2.257 1.878a.75.75 0 0 1 .75.75v6.767a.75.75 0 0 1-1.5 0V4.626a.75.75 0 0 1 .75-.75m-6.773.373a.75.75 0 0 1 .75.75v6a.75.75 0 0 1-1.5 0v-6a.75.75 0 0 1 .75-.75m2.258 1.5a.75.75 0 0 1 .75.75v3a.75.75 0 0 1-1.5 0v-3a.75.75 0 0 1 .75-.75m6.773 0a.75.75 0 0 1 .75.75v3a.75.75 0 0 1-1.5 0v-3a.75.75 0 0 1 .75-.75"/>
</svg>
